!!!!SEGMENT: pl-sa--575-a-ix-55--008_anonim--pollonaise.krn
!!!cenid: 18xx:622
!!!COM: Anonim
!!!COM-rismid: pe30004985
!!!CDT:
!!!CNT:
!!!OTL: Pollonaise
!!!PDT:
!!!AGN: Secular; Polonaise
!!!SMS-siglum: PL-SA
!!!SMS-shelfmark: 575/A IX 55
!!!SMS-shelfwork: 008 W
!!!SMS-variant:
!!!SMS-altvar:
!!!NIFC-rismid: 1001109838
!!!system-decoration: {(s1,s2)}
**kern	**kern	**dynam
*part1	*part1	*part1
*staff2	*staff1	*
*	*I"Piano	*
*clefF4	*clefG2	*
*k[f#]	*k[f#]	*
*M3/4	*M3/4	*
*>[A,A,B,B,A,A,B,B,C,C,D,D]	*>[A,A,B,B,A,A,B,B,C,C,D,D]	*
=1	=1	=1
*>A	*>A	*
*	*2\right	*
*tremolo	*	*
!	!LO:TX:a:Bi:t=Pollon&colon;:problem:'Pollon&colon;' znajduje się po lewej stronie systemu	!
!LO:TX:a:t=P:mixed beam:problem	!	!
8GG/L	4.dd 4.b 4.g\	.
8G\	.	.
8GG/	.	.
8G\	16b\LL	.
.	16dd\JJ	.
8GG/	16ee\LL	.
.	16dd\	.
8G\J	16cc\	.
.	16b\JJ	.
*Xtremolo	*	*
=2	=2	=2
!LO:TX:a:t=P:mixed beam:problem	!	!
8GG/L	16b\LL	.
.	16gg\JJ	.
8G\J	4gg 4ee\	.
4GG/	.	.
.	8ff#L 8dd\	.
4r	8ee 8cc\	.
.	8ddJ 8b\	.
=3	=3	=3
*tremolo	*	*
!LO:TX:a:t=P:mixed beam:problem	!	!
8GG/L	8cc#X\	.
8G\	4dd\	.
8GG/	.	.
8G\	16b\LL	.
.	16dd\JJ	.
8GG/	16ee\LL	.
.	16dd\	.
8G\J	16cc#\	.
.	16b\JJ	.
*Xtremolo	*	*
=4	=4	=4
4E\	16g#X\LL	.
.	16a\	.
.	16cc\	.
.	16b\JJ	.
4C#X/	16ee\LL	.
.	16dd\	.
.	16cc\	.
.	16b\JJ	.
.	16qqb/	.
4D\	4a\	.
=5	=5	=5
*tremolo	*	*
!LO:TX:a:t=P:mixed beam:problem	!	!
8GG/L	16g\LL	.
.	16b\JJ	.
8G\	4dd\	.
8GG/	.	.
8G\	16b\LL	.
.	16dd\JJ	.
8GG/	16ee\LL	.
.	16dd\	.
8G\J	16cc\	.
.	16b\JJ	.
*Xtremolo	*	*
=6	=6	=6
!LO:TX:a:t=P:mixed beam:problem	!	!
8GG/L	16b\LL	.
.	16gg\JJ	.
8G\J	4gg 4ee\	.
4GG/	.	.
.	8ff#L 8dd\	.
4r	8ee 8cc\	.
.	8ddJ 8b\	.
=7	=7	=7
4BB/	16dd\LL	.
.	16ee\	.
.	16ff#\	.
.	16gg\JJ	.
.	32qqff#/LLL	.
.	32qqaa/JJJ	.
4B\	8gg\L	.
.	16ff#\L	.
.	16ee\JJ	.
8r	16dd#X\LL	.
.	16ee\	.
8c\	16ddn\	.
.	16cc\JJ	.
=8	=8	=8
*	*Xtuplet	*
4d\	24b\LL	.
.	24cc\	.
.	24b\JJ	.
.	16cc\LL	.
.	16a\JJ	.
8r	4a/	.
!	!LO:N:vis=4	!
8BB/	.	.
4G\	8g/	.
.	8r	.
*	*tuplet	*
=9:|!|:	=9:|!|:	=9:|!|:
*>B	*>B	*
8DD/L	4.a 4.f# 4.d/	.
8D/J	.	.
!LO:TX:a:t=P:mixed beam:problem	!	!
8DD/L	.	.
8F#\	8a 8f#/	.
8DD/	8bL 8g/	.
8F#\J	8bJ 8g/	.
=10	=10	=10
8A\L	16ddLL 16b\	.
.	16cc 16a\	.
8F#\	16b 16g\	.
.	16ccJJ 16a\	.
8D\	8bL 8g\	.
8G\	8ddJ 8b\	.
8B\	4dd 4b\	.
8G\J	.	.
=11	=11	=11
8r	4a 4f# 4d/	.
8D\	.	.
!LO:TX:a:t=P:mixed beam:problem	!	!
8FF#/L	16a\LL	.
.	16f#\	.
8F#\	16a\	.
.	16cc\JJ	.
8GG/	16b\LL	.
.	16g\	.
8G\J	16b\	.
.	16dd\JJ	.
!!LO:LB:g=original
=12	=12	=12
*	*Xtuplet	*
8EL 8AA/	16cc#X\LL	.
.	16a\	.
8GJ 8AA/	16cc#\	.
.	16ee\JJ	.
4F# 4AA/	4.dd\	.
8A\	.	.
8r	24cc#X\LL	.
.	24ccn\	.
.	24a\JJ	.
*	*tuplet	*
=13	=13	=13
8r	16g/LL	.
.	16b/JJ	.
8G\	4dd\	.
*tremolo	*	*
!LO:TX:a:t=P:mixed beam:problem	!	!
8GG/L	.	.
8G\	16b\LL	.
.	16dd\JJ	.
8GG/	16ee\LL	.
.	16dd\	.
8G/J	16cc\	.
.	16b\JJ	.
*Xtremolo	*	*
=14	=14	=14
!LO:TX:a:t=P:mixed beam:problem	!	!
8GG/L	16b\LL	.
.	16gg\JJ	.
!	!LO:N:vis=4.	!
8G\J	4gg\	.
4GG/	.	.
.	8ff#\L	.
4r	8ee\	.
.	8dd\J	.
=15	=15	=15
4BB/	16dd\LL	.
.	16ee\	.
.	16ff#\	.
.	16gg\JJ	.
.	8qdd#X/	.
4C/	16ee\LL	.
.	16ff#\	.
.	16gg\	.
.	16ff#\JJ	.
8r	16gg\LL	.
.	16ee\	.
8C/	16dd#\	.
.	16cc\JJ	.
=16	=16	=16
4D\	16b\LL	.
.	16dd\	.
.	16cc\	.
.	16a\JJ	.
.	8qa/	.
8G\L	2g/	.
8D\J	.	.
4GG/	.	.
!	!LO:TX:b:Bi:t=Pollo&colon; Da Capo&colon;	!
=17:|!	=17:|!	=17:|!
*>C	*>C	*
*k[f#]	*k[f#]	*
*M3/4	*M3/4	*
*	*Xtuplet	*
!	!LO:TX:a:Bi:t=Trio:problem:'Trio' znajduje się po lewej stronie systemu; dodatkowa klamra przed systemem:problem	!
16GG/LL	8ggL 8b\	.
16D/	.	.
16BB/	8ggJ 8b\	.
16D/JJ	.	.
*rep	*	*
16GG/LL	4.gg 4.b\	.
16D/	.	.
16BB/	.	.
16D/JJ	.	.
*Xrep	*	*
4GG/	.	.
.	24dd\LL	.
.	24ee\	.
.	24ff#X\JJ	.
=18	=18	=18
4G\	16gg\LL	.
.	16aa\	.
.	16bb\	.
.	16aa\JJ	.
4GG/	16gg\LL	.
.	16dd 16b\	.
.	16ee 16cc\	.
.	16ddJJ 16b\	.
4r	8ddL 8b\	.
.	8ccJ 8a\	.
=19	=19	=19
16D\LL	8aaL 8cc\	.
16A\	.	.
16F#X\	8aaJ 8cc\	.
16A\JJ	.	.
*rep	*	*
16D\LL	4.aa 4.cc\	.
16A\	.	.
16F#\	.	.
16A\JJ	.	.
*Xrep	*	*
4D\	.	.
.	24ccLL 24a\	.
.	24dd 24b\	.
.	24eeJJ 24cc\	.
*	*tuplet	*
!!LO:LB:g=original
=20	=20	=20
4G\	8.dd\L	.
.	16cc\Jk	.
8d\L	16b\LL	.
.	16cc\	.
8D\J	16b\	.
.	16a\JJ	.
4G\	4g/	.
=21:|!|:	=21:|!|:	=21:|!|:
*>D	*>D	*
*tremolo	*	*
!LO:TX:a:t=P:mixed beam:problem	!	!
8BB/L	16b\LL	.
.	16cc\	.
8B\	16dd\	.
.	16ee\JJ	.
8BB/	16ee#X\LL	.
.	16ff#\	.
8B\	16dd\	.
.	16b\JJ	.
8BB/	16bb\LL	.
.	16aa\	.
8B\J	16gg\	.
.	16ff#\JJ	.
*Xtremolo	*	*
=22	=22	=22
4c\	8ee\L	.
.	8ccc\J	.
8A\L	4.cc\	.
8c\	.	.
8F#\	.	.
8A\J	8ff#\	.
=23	=23	=23
4B\	16dd\LL	.
.	16cc\	.
.	16dd\	.
.	16ee\JJ	.
*tremolo	*	*
!LO:TX:a:t=P:mixed beam:problem	!	!
8BB/L	16ee#X\LL	.
.	16ff#\	.
8B\	16dd\	.
.	16b\JJ	.
8BB/	16bb\LL	.
.	16aa\	.
8B\J	16gg\	.
.	16ff#\JJ	.
*Xtremolo	*	*
=24	=24	=24
!	!	!LO:DY:b:t=%s&colon;
4c\	8eeT>\L	p
.	8ccc\J	.
8A\L	4.cc\	.
8c\	.	.
8F#\	.	.
8A\J	8ee\	.
=25	=25	=25
.	32qqg/LLL	.
.	32qqb-X/JJJ	.
4B\	4dd\	.
4G\	8.dd\L	.
.	16cc\Jk	.
4r	8.b-\L	.
.	16a\Jk	.
=26	=26	=26
4d\	16g\LL	.
.	16b\J	.
.	8b\J	.
4D\	4.a\	.
4d\	.	.
.	16f#/LL	.
.	16d/JJ	.
=27	=27	=27
4G\	8dd\L	.
.	16dd\L	.
.	16ee\JJ	.
4B\	8.dd\L	.
.	16cc\K	.
!	!LO:SIC:s=8.c:v	!
!	!LO:N:vis=8	!
4B\	8.b\	.
.	16a\Jk	.
=28	=28	=28
4d\	16g/LL	.
.	16b/J	.
.	8b/J	.
8r	8aL 8d/	.
8D/	8dd/J	.
4G\	4g/	.
==:|!	==:|!	==:|!
*-	*-	*-
!!title: @{OTL};
!!!RDF**kern: > = above
!!!RDF**kern: < = below
!!!EED: Wojciech Jakubiak-Danek
!!!EST: 2020-12-10
!!!URL-scan: http://bc.bdsandomierz.pl/dlibra/publication/1381/edition/1349/content
!!!ONB-nifc: Str. 4, s. 1-3
!!!ENC: Marcin Jachim
!!!END: 2020-06-19
